X:1
T:See the bowl sparkles
T:Garrett Colley Wesley,  Earl of Mornington (1735-1781)
%%score [ 1 2 3 4 ]
L:1/8
M:3/4
K:A
V:1 treble nm="I"
V:2 treble nm="II"
V:3 treble nm="III"
V:4 treble nm="IV"
V:1
|: A2 A2 (Bc) | d4 d2 | f2 e2 d2 | c4 A2 | e6- | e6- | e6- | e6 | e3 ^d c2 | (B2 A2) G2 | %10
w: See, the bowl _|spark- les,|spark- les with|wine, see,|see,|_|||see the bowl|spark- * les,|
 (cf) e2 ^d2 | e6 | d6 | d2 c2 B2 | (cd) e2 z2 | f2 g2 a2 | e6- | e4 B2 | c4 ^d2 | e3 e c2 | %20
w: spark- * les with|wine,|see,|see the bowl|spark- * les,|spark- les, see,|see,|_ with|wine, with|wine, the bowl|
 d2 c2 B2 | c4 z2 :| %22
w: spark- les with|wine.|
V:2
|: c4 A2 | (A2 B2) c2 | (d2 A2) G2 | A4 z2 | z6 | B6- | B6- | B6 | B2 B2 A2 | (G2 F2) E2 | %10
w: You four|sing _ our|fav'- * rite|glee,||you|_||four sing our|fav'- * rite,|
 A,2 B,4 | E6 | z2 B4 | B2 A2 G2 | (AB) c2 z2 | (A2 d2) c2 | z2 B4- | B4 G2 | A2 G2 F2 | G4 A2 | %20
w: fav'- rite|glee,|you|four sing our|fav'- * rite,|fav'- * rite,|you,|_ you|four sing our|fav'- rite,|
 B2 A2 G2 | A4 z2 :| %22
w: fav'- * rite|glee.|
V:3
|: z2 A2 E2 | F2 G2 A2 | D2 C2 B,2 | A,4 z2 | z6 | z6 | G6- | G6- | G4 A2 | B2 B2 B2 | E2 E2 A2 | %11
w: End- less|plea- sures we|press from the|vine,|||end-||* less|plea- sures we|press from the|
 G6 | z4 (G2- | G2 A2) B2 | A2 A2 A2 | (A2 E2) A2 | z4 G2- | G4 d2 | c2 B2 A2 | B4 A2 | D2 E2 E2 | %21
w: vine,|end-|* * less|plea- sures we|press _ from,|end-|* less|plea- sures we|press, we|press from the|
 A,4 z2 :| %22
w: vine.|
V:4
|: e6 | (dc) B2 A2 | A2 A2 E2 | E4 z2 | z6 | z6 | z6 | E6- | E4 E2 | E2 F2 G2 | A2 G2 F2 | E6 | %12
w: Dull|spleen _ is the|ex- tract of|tea,||||tea,|_ the|ex- tract, the|ex- tract of|tea,|
 z6 | E4 E2 | A2 C2 A,2 | (DC) B,2 A,2 | z6 | E4 E2 | E4 E2 | E3 E A2 | F2 E2 E2 | E4 z2 :| %22
w: |tea, dull|spleen is the|ex- * tract of||tea, dull|spleen, dull|spleen is the|ex- tract of|tea.|

